flower-tulip.svg

<svg fill="currentColor" viewBox="0 0 24 24"><path d="M3 13a9 9 0 0 0 9 9 9 9 0 0 0-9-9m9 9a9 9 0 0 0 9-9 9 9 0 0 0-9 9m6-19v5a6 6 0 0 1-6 6 6 6 0 0 1-6-6V3c.74 0 1.47.12 2.16.39.55.23 1.04.57 1.45 1L12 2l2.39 2.39c.41-.43.9-.77 1.45-1A5.9 5.9 0 0 1 18 3"/></svg>

<svg  viewBox="0 0 24 24" fill="currentColor"><path  d="M3,13A9,9 0 0,0 12,22A9,9 0 0,0 3,13M12,22A9,9 0 0,0 21,13A9,9 0 0,0 12,22M18,3V8A6,6 0 0,1 12,14A6,6 0 0,1 6,8V3C6.74,3 7.47,3.12 8.16,3.39C8.71,3.62 9.2,3.96 9.61,4.39L12,2L14.39,4.39C14.8,3.96 15.29,3.62 15.84,3.39C16.53,3.12 17.26,3 18,3Z"/></svg>
